src/img/benefits-2.svg

<svg width="49" height="48" viewBox="0 0 49 48" fill="none" xmlns="http://www.w3.org/2000/svg">
<g opacity="0.9">
<path d="M9.60425 13.4009C7.50091 13.4009 5.80469 11.7071 5.80469 9.64648C5.80469 9.26165 5.97227 8.58364 6.31932 7.66932C6.653 6.79021 7.10828 5.80362 7.5855 4.84931C8.39362 3.23333 9.24052 1.75768 9.60425 1.13616C9.96801 1.75761 10.815 3.23348 11.6232 4.84965C12.1004 5.80391 12.5556 6.79043 12.8892 7.66947C13.2362 8.58372 13.4038 9.26168 13.4038 9.64648C13.4038 11.7065 11.7075 13.4009 9.60425 13.4009Z" stroke="#B01736" stroke-width="2"/>
<path d="M5.80469 15.3573C5.80469 14.5842 6.43139 13.9575 7.20446 13.9575H12.004C12.7771 13.9575 13.4038 14.5842 13.4038 15.3573V27.4061H5.80469V15.3573Z" stroke="#B01736" stroke-width="2"/>
<path d="M20.2033 15.3573C20.2033 14.5842 20.83 13.9575 21.6031 13.9575H26.4026C27.1757 13.9575 27.8024 14.5842 27.8024 15.3573V27.4061H20.2033V15.3573Z" stroke="#B01736" stroke-width="2"/>
<path d="M27.8024 9.64648V9.64675C27.8029 11.7063 26.1063 13.4009 24.0029 13.4009C21.8995 13.4009 20.2033 11.7071 20.2033 9.64648C20.2033 9.26165 20.3709 8.58364 20.7179 7.66932C21.0516 6.79021 21.5069 5.80362 21.9841 4.84931C22.7922 3.23333 23.6391 1.75768 24.0029 1.13616C24.3666 1.75761 25.2137 3.23348 26.0218 4.84965C26.499 5.80391 26.9542 6.79043 27.2878 7.66947C27.6348 8.58372 27.8024 9.26168 27.8024 9.64648Z" stroke="#B01736" stroke-width="2"/>
<path d="M34.6019 15.3573C34.6019 14.5842 35.2286 13.9575 36.0017 13.9575H40.8012C41.5743 13.9575 42.201 14.5842 42.201 15.3573V27.4061H34.6019V15.3573Z" stroke="#B01736" stroke-width="2"/>
<path d="M38.4015 13.4009C36.2981 13.4009 34.6019 11.7071 34.6019 9.64648C34.6019 9.26165 34.7695 8.58364 35.1166 7.66932C35.4502 6.79021 35.9055 5.80362 36.3827 4.84931C37.1909 3.23333 38.0378 1.75769 38.4015 1.13616C38.7653 1.75762 39.6123 3.23348 40.4204 4.84965C40.8976 5.80391 41.3528 6.79043 41.6865 7.66947C42.0335 8.58372 42.201 9.26168 42.201 9.64648C42.201 11.7065 40.5047 13.4009 38.4015 13.4009Z" stroke="#B01736" stroke-width="2"/>
<path d="M0.734375 36.4871L2.81543 38.1011C3.82907 38.887 5.59749 38.887 6.61112 38.1011L8.69282 36.4871C9.15682 36.1289 9.96348 36.1279 10.4275 36.4871L12.5085 38.1011C13.5566 38.9136 15.2599 38.9122 16.3048 38.1011L18.3859 36.4871C18.8493 36.1289 19.6559 36.1279 20.1205 36.4871L22.2022 38.1011C22.7093 38.4943 23.3834 38.7105 24.1 38.7105C24.8172 38.7105 25.4915 38.4938 25.9992 38.1011L28.0809 36.4871C28.5455 36.1279 29.3522 36.1289 29.8156 36.4871L31.8966 38.1011C32.9447 38.9136 34.648 38.9122 35.6929 38.1011L37.774 36.4871C38.2386 36.1279 39.0453 36.1289 39.5086 36.4871L41.5903 38.1011C42.6358 38.9117 44.3386 38.9132 45.386 38.1011C46.4334 37.289 47.4677 36.4871 47.4677 36.4871" stroke="#B01736" stroke-width="2"/>
<rect x="1.00391" y="27.4749" width="45.9954" height="19.5226" rx="3.79954" stroke="#B01736" stroke-width="2"/>
</g>
</svg>

<svg xmlns="http://www.w3.org/2000/svg" id="benefits-2" width="49" height="48" fill="none"><g stroke="#B01736" stroke-width="2" opacity=".9"><path d="M9.604 13.4c-2.103 0-3.8-1.693-3.8-3.754 0-.384.168-1.062.515-1.977.334-.879.79-1.865 1.266-2.82a67.8 67.8 0 0 1 2.02-3.713c.363.622 1.21 2.097 2.018 3.714.477.954.933 1.94 1.266 2.82.347.914.515 1.592.515 1.976 0 2.06-1.697 3.755-3.8 3.755ZM5.805 15.357a1.4 1.4 0 0 1 1.4-1.4h4.799a1.4 1.4 0 0 1 1.4 1.4v12.05h-7.6v-12.05ZM20.203 15.357a1.4 1.4 0 0 1 1.4-1.4h4.8a1.4 1.4 0 0 1 1.4 1.4v12.05h-7.6v-12.05ZM27.802 9.646c0 2.06-1.696 3.755-3.8 3.755-2.102 0-3.799-1.694-3.799-3.755 0-.384.168-1.062.515-1.977.334-.879.789-1.865 1.266-2.82a67.728 67.728 0 0 1 2.019-3.713c.364.622 1.21 2.097 2.019 3.714.477.954.932 1.94 1.266 2.82.347.914.514 1.592.514 1.976ZM34.602 15.357a1.4 1.4 0 0 1 1.4-1.4h4.8a1.4 1.4 0 0 1 1.399 1.4v12.05h-7.6v-12.05ZM38.401 13.4c-2.103 0-3.8-1.693-3.8-3.754 0-.384.169-1.062.516-1.977.333-.879.789-1.865 1.266-2.82A67.873 67.873 0 0 1 38.4 1.136c.364.622 1.211 2.097 2.02 3.714.477.954.932 1.94 1.266 2.82.346.914.514 1.592.514 1.976 0 2.06-1.696 3.755-3.8 3.755ZM.734 36.487l2.081 1.614c1.014.786 2.782.786 3.796 0l2.082-1.614c.464-.358 1.27-.36 1.735 0l2.08 1.614c1.049.813 2.752.811 3.797 0l2.08-1.614c.464-.358 1.27-.36 1.735 0l2.082 1.614c.507.393 1.181.61 1.898.61.717 0 1.391-.217 1.9-.61l2.08-1.614c.466-.36 1.272-.358 1.736 0l2.08 1.614c1.049.813 2.752.811 3.797 0l2.081-1.614c.465-.36 1.271-.358 1.735 0l2.081 1.614c1.046.81 2.749.812 3.796 0l2.082-1.614"/><rect width="45.995" height="19.523" x="1.004" y="27.475" rx="3.8"/></g></svg>
